Newaita-dark/apps/22/com.github.bartzaalberg.alias.svg

<svg height="22pt" viewBox="0 0 22 22" width="22pt" xmlns="http://www.w3.org/2000/svg" xmlns:xlink="http://www.w3.org/1999/xlink"><linearGradient id="a"><stop offset="0" stop-opacity=".313725"/><stop offset=".222222" stop-opacity=".27451"/><stop offset="1" stop-opacity="0"/></linearGradient><radialGradient id="b" cx="450.90894" cy="189.57936" gradientTransform="matrix(.00000012 -.0537161 -.0966889 -.00000007 30.609667 43.721791)" gradientUnits="userSpaceOnUse" r="21.166656" xlink:href="#a"/><radialGradient id="c" cx="450.90894" cy="189.57936" gradientTransform="matrix(-.00000012 .0537161 .0966889 .00000007 -8.779458 -5.175143)" gradientUnits="userSpaceOnUse" r="21.166656" xlink:href="#a"/><radialGradient id="d" cx="450.90894" cy="189.57936" gradientTransform="matrix(-.00000012 -.0537161 .0966889 -.00000007 -8.779458 43.721791)" gradientUnits="userSpaceOnUse" r="21.166656" xlink:href="#a"/><radialGradient id="e" cx="450.90894" cy="189.57936" gradientTransform="matrix(.00000012 .0537161 -.0966889 .00000007 30.609666 -5.175144)" gradientUnits="userSpaceOnUse" r="21.166656" xlink:href="#a"/><linearGradient id="f" gradientTransform="matrix(.00918504 0 0 .0429729 8.569953 9.239164)" gradientUnits="userSpaceOnUse" x1="255.32306" x2="255.32304" y1="233.5" y2="254.66666"><stop offset="0" stop-opacity=".27451"/><stop offset="1" stop-opacity="0"/></linearGradient><linearGradient id="g" gradientUnits="userSpaceOnUse" x1="254" x2="254" y1="-168.66667" y2="233.5"><stop offset="0" stop-color="#64b5f6"/><stop offset="1" stop-color="#42a5f5"/></linearGradient><linearGradient id="h" gradientUnits="userSpaceOnUse" x1="10.691993" x2="10.691993" y1="19.27332442218" y2="1.99107562629"><stop offset="0" stop-color="#bdbdbd"/><stop offset="1" stop-color="#e0e0e0"/></linearGradient><path d="m12.507812 19.273438h1.816407v-.910157h-1.816407zm0 0" fill="url(#b)"/><path d="m9.324219 19.273438h-1.820313v.910156h1.820313zm0 0" fill="url(#c)"/><path d="m9.324219 19.273438h-1.820313v-.910157h1.820313zm0 0" fill="url(#d)"/><path d="m12.507812 19.273438h1.816407v.910156h-1.816407zm0 0" fill="url(#e)"/><path d="m9.324219 19.046875h3.183593v1.136719h-3.183593zm0 0" fill="url(#f)"/><path d="m253.975747-168.640791c111.080301 0 201.071707 89.991407 201.071707 201.071708s-89.991406 201.071708-201.071707 201.071708c-110.989402 0-201.071708-89.991407-201.071708-201.071708s90.082306-201.071708 201.071708-201.071708zm0 0" fill="url(#g)" stroke="#333" stroke-linecap="round" stroke-width="3" transform="matrix(.0429729 0 0 .0429729 0 9.239163)"/><path d="m10.914062 19.273438c-4.785156 0-8.640624-3.855469-8.640624-8.640626 0-.027343 0-.058593 0-.085937.046874 4.75 3.882812 8.558594 8.640624 8.558594 4.761719 0 8.597657-3.808594 8.640626-8.558594v.085937c0 4.785157-3.851563 8.640626-8.640626 8.640626zm0 0" fill-opacity=".196078"/><path d="m10.914062 1.992188c-4.785156 0-8.640624 3.851562-8.640624 8.640624v.085938c.046874-4.75 3.882812-8.558594 8.640624-8.558594 4.761719 0 8.597657 3.808594 8.640626 8.558594 0-.03125 0-.058594 0-.085938 0-4.789062-3.851563-8.640624-8.640626-8.640624zm0 0" fill="#fff" fill-opacity=".392157"/><path d="m10.914062 1.925781c-4.820312 0-8.703124 3.882813-8.703124 8.707031 0 4.820313 3.882812 8.703126 8.703124 8.703126 4.824219 0 8.707032-3.882813 8.707032-8.703126 0-4.824218-3.882813-8.707031-8.707032-8.707031zm0 .128907c4.753907 0 8.578126 3.824218 8.578126 8.578124 0 4.75-3.824219 8.574219-8.578126 8.574219-4.75 0-8.574218-3.824219-8.574218-8.574219 0-4.753906 3.824218-8.578124 8.574218-8.578124zm0 0" fill="#212121"/><path d="m13.164062 5.398438c-1.300781 0-2.738281.023437-3.917968.9375-1.253906.976562-1.96875 2.828124-1.96875 6.105468v2.285156c-.003906.246094.125.476563.339844.601563.214843.125.476562.125.691406 0s.34375-.355469.339844-.601563v-2.285156c0-.402344.011718-.777344.035156-1.121094h4.050781v3.40625c-.003906.246094.125.476563.339844.601563.214843.125.480469.125.691406 0 .214844-.125.34375-.355469.339844-.601563v-3.996093c.011719-.066407.011719-.132813 0-.195313v-4.449218c0-.378907-.304688-.6875-.683594-.6875-.085937 0-.171875 0-.257813 0zm-.429687 1.382812v3.164062h-3.894531c.25-1.375.71875-2.113281 1.25-2.523437.652344-.507813 1.578125-.617187 2.644531-.640625zm0 0" fill="url(#h)"/><path d="m13.164062 5.398438c-1.300781 0-2.738281.023437-3.917968.9375-1.253906.976562-1.96875 2.828124-1.96875 6.105468v.347656c0-3.277343.714844-5.128906 1.96875-6.105468 1.179687-.917969 2.617187-.941406 3.917968-.941406h.257813c.378906 0 .683594.308593.683594.6875v-.34375c0-.378907-.304688-.6875-.683594-.6875-.085937 0-.171875 0-.257813 0zm-4.253906 4.546874c-.023437.109376-.046875.226563-.070312.347657h3.894531v-.347657zm5.195313.589844v.195313c.011719-.066407.011719-.132813 0-.195313zm0 0" fill="#fff"/><path d="m12.734375 6.777344c-1.066406.023437-1.992187.132812-2.644531.640625-.53125.410156-1 1.148437-1.25 2.523437h.097656c.261719-1.085937.683594-1.707031 1.152344-2.070312.652344-.507813 1.578125-.613282 2.644531-.640625zm1.371094 4.207031v.195313c.011719-.0625.011719-.128907 0-.195313zm-5.421875.328125c-.023438.347656-.035156.722656-.035156 1.125v.453125c0-.402344.011718-.777344.035156-1.121094h4.050781v-.457031zm-1.40625 3.410156v.453125c-.003906.246094.125.476563.339844.601563.214843.125.476562.125.691406 0s.34375-.355469.339844-.601563v-.453125c.003906.246094-.125.476563-.339844.601563s-.476563.125-.691406 0c-.214844-.125-.34375-.355469-.339844-.601563zm5.457031 0v.453125c-.003906.246094.125.476563.339844.601563.214843.125.480469.125.691406 0 .214844-.125.34375-.355469.339844-.601563v-.453125c.003906.246094-.125.476563-.339844.601563-.210937.125-.476563.125-.691406 0-.214844-.125-.34375-.355469-.339844-.601563zm0 0" fill-opacity=".235294"/><path d="m306.334383-89.375633c-30.269837 0-63.721188.545403-91.173112 21.816099-29.179031 22.725102-45.813807 65.811897-45.813807 142.077341v53.17674c-.0909 5.726726 2.908814 11.08985 7.908336 13.998663 4.999523 2.908813 11.08985 2.908813 16.089373 0 4.999522-2.908813 7.999236-8.271937 7.908336-13.998663v-53.17674c0-9.362742.272701-18.089182.818103-26.088418h94.263726v79.265158c-.090901 5.726726 2.908813 11.08985 7.908335 13.998663 4.999523 2.908813 11.180751 2.908813 16.089373 0 4.999523-2.908813 7.999236-8.271937 7.908336-13.998663v-92.99112c.272701-1.545307.272701-3.090614 0-4.54502v-103.535568c0-8.817339-7.090232-15.998472-15.907572-15.998472-1.999809 0-3.999618 0-5.999427 0zm-9.999045 32.178745v73.629333h-90.627709c5.817626-31.996945 16.725675-49.177122 29.088131-58.721665 15.180368-11.817054 36.723766-14.362265 61.539578-14.907668zm0 0" fill="none" stroke="#212121" stroke-linecap="round" stroke-linejoin="round" stroke-width="3" transform="matrix(.0429729 0 0 .0429729 0 9.239163)"/></svg>

<?xml version="1.0" encoding="UTF-8"?>
<svg xmlns="http://www.w3.org/2000/svg" xmlns:xlink="http://www.w3.org/1999/xlink" width="22pt" height="22pt" viewBox="0 0 22 22" version="1.1">
<defs>
<radialGradient id="radial0" gradientUnits="userSpaceOnUse" cx="450.90894" cy="189.57936" fx="450.90894" fy="189.57936" r="21.166656" gradientTransform="matrix(0.000000119742,-0.0537161,-0.0966889,-0.0000000698078,30.609667,43.721791)">
<stop offset="0" style="stop-color:rgb(0%,0%,0%);stop-opacity:0.313725;"/>
<stop offset="0.222222" style="stop-color:rgb(0%,0%,0%);stop-opacity:0.27451;"/>
<stop offset="1" style="stop-color:rgb(0%,0%,0%);stop-opacity:0;"/>
</radialGradient>
<radialGradient id="radial1" gradientUnits="userSpaceOnUse" cx="450.90894" cy="189.57936" fx="450.90894" fy="189.57936" r="21.166656" gradientTransform="matrix(-0.000000119742,0.0537161,0.0966889,0.0000000698078,-8.779458,-5.175143)">
<stop offset="0" style="stop-color:rgb(0%,0%,0%);stop-opacity:0.313725;"/>
<stop offset="0.222222" style="stop-color:rgb(0%,0%,0%);stop-opacity:0.27451;"/>
<stop offset="1" style="stop-color:rgb(0%,0%,0%);stop-opacity:0;"/>
</radialGradient>
<radialGradient id="radial2" gradientUnits="userSpaceOnUse" cx="450.90894" cy="189.57936" fx="450.90894" fy="189.57936" r="21.166656" gradientTransform="matrix(-0.000000119742,-0.0537161,0.0966889,-0.0000000698078,-8.779458,43.721791)">
<stop offset="0" style="stop-color:rgb(0%,0%,0%);stop-opacity:0.313725;"/>
<stop offset="0.222222" style="stop-color:rgb(0%,0%,0%);stop-opacity:0.27451;"/>
<stop offset="1" style="stop-color:rgb(0%,0%,0%);stop-opacity:0;"/>
</radialGradient>
<radialGradient id="radial3" gradientUnits="userSpaceOnUse" cx="450.90894" cy="189.57936" fx="450.90894" fy="189.57936" r="21.166656" gradientTransform="matrix(0.000000119742,0.0537161,-0.0966889,0.0000000698078,30.609666,-5.175144)">
<stop offset="0" style="stop-color:rgb(0%,0%,0%);stop-opacity:0.313725;"/>
<stop offset="0.222222" style="stop-color:rgb(0%,0%,0%);stop-opacity:0.27451;"/>
<stop offset="1" style="stop-color:rgb(0%,0%,0%);stop-opacity:0;"/>
</radialGradient>
<linearGradient id="linear0" gradientUnits="userSpaceOnUse" x1="255.32306" y1="233.5" x2="255.32304" y2="254.66666" gradientTransform="matrix(0.00918504,0,0,0.0429729,8.569953,9.239164)">
<stop offset="0" style="stop-color:rgb(0%,0%,0%);stop-opacity:0.27451;"/>
<stop offset="1" style="stop-color:rgb(0%,0%,0%);stop-opacity:0;"/>
</linearGradient>
<linearGradient id="linear1" gradientUnits="userSpaceOnUse" x1="254" y1="-168.66667" x2="254" y2="233.5" >
<stop offset="0" style="stop-color:rgb(39.215686%,70.980392%,96.470588%);stop-opacity:1;"/>
<stop offset="1" style="stop-color:rgb(25.882353%,64.705882%,96.078431%);stop-opacity:1;"/>
</linearGradient>
<linearGradient id="linear2" gradientUnits="userSpaceOnUse" x1="960" y1="1695.1182" x2="960" y2="175.11813" gradientTransform="matrix(0.0113699,0,0,0.0113699,-0.223111,0)">
<stop offset="0" style="stop-color:rgb(74.117647%,74.117647%,74.117647%);stop-opacity:1;"/>
<stop offset="1" style="stop-color:rgb(87.843137%,87.843137%,87.843137%);stop-opacity:1;"/>
</linearGradient>
</defs>
<g id="surface1">
<path style=" stroke:none;fill-rule:nonzero;fill:url(#radial0);" d="M 12.507812 19.273438 L 14.324219 19.273438 L 14.324219 18.363281 L 12.507812 18.363281 Z M 12.507812 19.273438 "/>
<path style=" stroke:none;fill-rule:nonzero;fill:url(#radial1);" d="M 9.324219 19.273438 L 7.503906 19.273438 L 7.503906 20.183594 L 9.324219 20.183594 Z M 9.324219 19.273438 "/>
<path style=" stroke:none;fill-rule:nonzero;fill:url(#radial2);" d="M 9.324219 19.273438 L 7.503906 19.273438 L 7.503906 18.363281 L 9.324219 18.363281 Z M 9.324219 19.273438 "/>
<path style=" stroke:none;fill-rule:nonzero;fill:url(#radial3);" d="M 12.507812 19.273438 L 14.324219 19.273438 L 14.324219 20.183594 L 12.507812 20.183594 Z M 12.507812 19.273438 "/>
<path style=" stroke:none;fill-rule:nonzero;fill:url(#linear0);" d="M 9.324219 19.046875 L 12.507812 19.046875 L 12.507812 20.183594 L 9.324219 20.183594 Z M 9.324219 19.046875 "/>
<path style="fill-rule:nonzero;fill:url(#linear1);stroke-width:3;stroke-linecap:round;stroke-linejoin:miter;stroke:rgb(20%,20%,20%);stroke-opacity:1;stroke-miterlimit:4;" d="M 253.975747 -168.640791 C 365.056048 -168.640791 455.047454 -78.649384 455.047454 32.430917 C 455.047454 143.511218 365.056048 233.502625 253.975747 233.502625 C 142.986345 233.502625 52.904039 143.511218 52.904039 32.430917 C 52.904039 -78.649384 142.986345 -168.640791 253.975747 -168.640791 Z M 253.975747 -168.640791 " transform="matrix(0.0429729,0,0,0.0429729,0,9.239163)"/>
<path style=" stroke:none;fill-rule:nonzero;fill:rgb(0%,0%,0%);fill-opacity:0.196078;" d="M 10.914062 19.273438 C 6.128906 19.273438 2.273438 15.417969 2.273438 10.632812 C 2.273438 10.605469 2.273438 10.574219 2.273438 10.546875 C 2.320312 15.296875 6.15625 19.105469 10.914062 19.105469 C 15.675781 19.105469 19.511719 15.296875 19.554688 10.546875 C 19.554688 10.574219 19.554688 10.605469 19.554688 10.632812 C 19.554688 15.417969 15.703125 19.273438 10.914062 19.273438 Z M 10.914062 19.273438 "/>
<path style=" stroke:none;fill-rule:nonzero;fill:rgb(100%,100%,100%);fill-opacity:0.392157;" d="M 10.914062 1.992188 C 6.128906 1.992188 2.273438 5.84375 2.273438 10.632812 C 2.273438 10.660156 2.273438 10.6875 2.273438 10.71875 C 2.320312 5.96875 6.15625 2.160156 10.914062 2.160156 C 15.675781 2.160156 19.511719 5.96875 19.554688 10.71875 C 19.554688 10.6875 19.554688 10.660156 19.554688 10.632812 C 19.554688 5.84375 15.703125 1.992188 10.914062 1.992188 Z M 10.914062 1.992188 "/>
<path style=" stroke:none;fill-rule:nonzero;fill:rgb(12.941176%,12.941176%,12.941176%);fill-opacity:1;" d="M 10.914062 1.925781 C 6.09375 1.925781 2.210938 5.808594 2.210938 10.632812 C 2.210938 15.453125 6.09375 19.335938 10.914062 19.335938 C 15.738281 19.335938 19.621094 15.453125 19.621094 10.632812 C 19.621094 5.808594 15.738281 1.925781 10.914062 1.925781 Z M 10.914062 2.054688 C 15.667969 2.054688 19.492188 5.878906 19.492188 10.632812 C 19.492188 15.382812 15.667969 19.207031 10.914062 19.207031 C 6.164062 19.207031 2.339844 15.382812 2.339844 10.632812 C 2.339844 5.878906 6.164062 2.054688 10.914062 2.054688 Z M 10.914062 2.054688 "/>
<path style=" stroke:none;fill-rule:nonzero;fill:url(#linear2);" d="M 13.164062 5.398438 C 11.863281 5.398438 10.425781 5.421875 9.246094 6.335938 C 7.992188 7.3125 7.277344 9.164062 7.277344 12.441406 L 7.277344 14.726562 C 7.273438 14.972656 7.402344 15.203125 7.617188 15.328125 C 7.832031 15.453125 8.09375 15.453125 8.308594 15.328125 C 8.523438 15.203125 8.652344 14.972656 8.648438 14.726562 L 8.648438 12.441406 C 8.648438 12.039062 8.660156 11.664062 8.683594 11.320312 L 12.734375 11.320312 L 12.734375 14.726562 C 12.730469 14.972656 12.859375 15.203125 13.074219 15.328125 C 13.289062 15.453125 13.554688 15.453125 13.765625 15.328125 C 13.980469 15.203125 14.109375 14.972656 14.105469 14.726562 L 14.105469 10.730469 C 14.117188 10.664062 14.117188 10.597656 14.105469 10.535156 L 14.105469 6.085938 C 14.105469 5.707031 13.800781 5.398438 13.421875 5.398438 C 13.335938 5.398438 13.25 5.398438 13.164062 5.398438 Z M 12.734375 6.78125 L 12.734375 9.945312 L 8.839844 9.945312 C 9.089844 8.570312 9.558594 7.832031 10.089844 7.421875 C 10.742188 6.914062 11.667969 6.804688 12.734375 6.78125 Z M 12.734375 6.78125 "/>
<path style=" stroke:none;fill-rule:nonzero;fill:rgb(100%,100%,100%);fill-opacity:1;" d="M 13.164062 5.398438 C 11.863281 5.398438 10.425781 5.421875 9.246094 6.335938 C 7.992188 7.3125 7.277344 9.164062 7.277344 12.441406 L 7.277344 12.789062 C 7.277344 9.511719 7.992188 7.660156 9.246094 6.683594 C 10.425781 5.765625 11.863281 5.742188 13.164062 5.742188 C 13.25 5.742188 13.335938 5.742188 13.421875 5.742188 C 13.800781 5.742188 14.105469 6.050781 14.105469 6.429688 L 14.105469 6.085938 C 14.105469 5.707031 13.800781 5.398438 13.421875 5.398438 C 13.335938 5.398438 13.25 5.398438 13.164062 5.398438 Z M 8.910156 9.945312 C 8.886719 10.054688 8.863281 10.171875 8.839844 10.292969 L 12.734375 10.292969 L 12.734375 9.945312 Z M 14.105469 10.535156 L 14.105469 10.730469 C 14.117188 10.664062 14.117188 10.597656 14.105469 10.535156 Z M 14.105469 10.535156 "/>
<path style=" stroke:none;fill-rule:nonzero;fill:rgb(0%,0%,0%);fill-opacity:0.235294;" d="M 12.734375 6.777344 C 11.667969 6.800781 10.742188 6.910156 10.089844 7.417969 C 9.558594 7.828125 9.089844 8.566406 8.839844 9.941406 L 8.9375 9.941406 C 9.199219 8.855469 9.621094 8.234375 10.089844 7.871094 C 10.742188 7.363281 11.667969 7.257812 12.734375 7.230469 Z M 14.105469 10.984375 L 14.105469 11.179688 C 14.117188 11.117188 14.117188 11.050781 14.105469 10.984375 Z M 8.683594 11.3125 C 8.660156 11.660156 8.648438 12.035156 8.648438 12.4375 L 8.648438 12.890625 C 8.648438 12.488281 8.660156 12.113281 8.683594 11.769531 L 12.734375 11.769531 L 12.734375 11.3125 Z M 7.277344 14.722656 L 7.277344 15.175781 C 7.273438 15.421875 7.402344 15.652344 7.617188 15.777344 C 7.832031 15.902344 8.09375 15.902344 8.308594 15.777344 C 8.523438 15.652344 8.652344 15.421875 8.648438 15.175781 L 8.648438 14.722656 C 8.652344 14.96875 8.523438 15.199219 8.308594 15.324219 C 8.09375 15.449219 7.832031 15.449219 7.617188 15.324219 C 7.402344 15.199219 7.273438 14.96875 7.277344 14.722656 Z M 12.734375 14.722656 L 12.734375 15.175781 C 12.730469 15.421875 12.859375 15.652344 13.074219 15.777344 C 13.289062 15.902344 13.554688 15.902344 13.765625 15.777344 C 13.980469 15.652344 14.109375 15.421875 14.105469 15.175781 L 14.105469 14.722656 C 14.109375 14.96875 13.980469 15.199219 13.765625 15.324219 C 13.554688 15.449219 13.289062 15.449219 13.074219 15.324219 C 12.859375 15.199219 12.730469 14.96875 12.734375 14.722656 Z M 12.734375 14.722656 "/>
<path style="fill:none;stroke-width:3;stroke-linecap:round;stroke-linejoin:round;stroke:rgb(12.941176%,12.941176%,12.941176%);stroke-opacity:1;stroke-miterlimit:4;" d="M 306.334383 -89.375633 C 276.064546 -89.375633 242.613195 -88.83023 215.161271 -67.559534 C 185.98224 -44.834432 169.347464 -1.747637 169.347464 74.517807 L 169.347464 127.694547 C 169.256564 133.421273 172.256278 138.784397 177.2558 141.69321 C 182.255323 144.602023 188.34565 144.602023 193.345173 141.69321 C 198.344695 138.784397 201.344409 133.421273 201.253509 127.694547 L 201.253509 74.517807 C 201.253509 65.155065 201.52621 56.428625 202.071612 48.429389 L 296.335338 48.429389 L 296.335338 127.694547 C 296.244437 133.421273 299.244151 138.784397 304.243673 141.69321 C 309.243196 144.602023 315.424424 144.602023 320.333046 141.69321 C 325.332569 138.784397 328.332282 133.421273 328.241382 127.694547 L 328.241382 34.703427 C 328.514083 33.15812 328.514083 31.612813 328.241382 30.158407 L 328.241382 -73.377161 C 328.241382 -82.1945 321.15115 -89.375633 312.33381 -89.375633 C 310.334001 -89.375633 308.334192 -89.375633 306.334383 -89.375633 Z M 296.335338 -57.196888 L 296.335338 16.432445 L 205.707629 16.432445 C 211.525255 -15.5645 222.433304 -32.744677 234.79576 -42.28922 C 249.976128 -54.106274 271.519526 -56.651485 296.335338 -57.196888 Z M 296.335338 -57.196888 " transform="matrix(0.0429729,0,0,0.0429729,0,9.239163)"/>
</g>
</svg>
